src/img/d00.svg

<?xml version="1.0" encoding="UTF-8"?>
<svg width="38px" height="39px" viewBox="0 0 38 39" version="1.1" xmlns="http://www.w3.org/2000/svg" xmlns:xlink="http://www.w3.org/1999/xlink" xmlns:cc="http://creativecommons.org/ns#">
		<!-- Generator: Sketch 53.2 (72643) - https://sketchapp.com -->
		<title>d00</title>
		<desc>Created with Sketch.</desc>
		<g id="Page-1" stroke="none" stroke-width="1" fill="none" fill-rule="evenodd">
				<g id="rpg_dice" transform="translate(0.000000, -13.000000)" fill="#000000" fill-rule="nonzero">
						<path d="M1.665701,50.75 C1.220741,50.0625 0.707021,41.73764 0.524091,32.250312 C0.217911,16.371122 0.334841,14.945612 1.995811,14.308242 C2.988181,13.927432 10.508611,13.589792 18.707871,13.557932 L33.615624,13.500032 L35.611646,16.156592 C37.494528,18.662572 37.56618,19.753722 36.875725,35.406592 L36.143782,52.00003 L19.309251,52.00003 C6.939771,52.00003 2.260141,51.668491 1.665701,50.75003 L1.665701,50.75 Z M18.356691,49.046511 C19.690021,48.977941 19.690021,48.861666 18.356691,48 C16.380831,46.723103 13.067521,46.723103 13.856691,48 C14.196611,48.55 14.046311,49 13.522691,49 C12.999081,49 12.346961,48.417038 12.073541,47.704528 C11.422601,46.008198 15.032821,45.698736 18.622881,47.143129 C20.813041,48.024299 21.151961,48.541753 20.250431,49.628027 C19.302601,50.770091 20.379241,51 26.675221,51 C30.835112,51 34.456576,50.647395 34.722924,50.216434 C34.989273,49.785473 35.533025,42.308822 35.931261,33.601652 C36.628876,18.348772 36.585943,17.790252 34.756008,18.312882 C33.711382,18.611232 30.606688,19.164832 27.856691,19.543122 C22.939371,20.219532 22.807081,20.330392 19.856691,26.247252 L16.856691,32.263592 L25.383661,40.881798 L33.910634,49.5 L25.862771,41.75 C21.436451,37.4875 17.029991,34.000002 16.070651,34.000002 C14.023551,34.000002 4.048971,39.460928 2.344251,41.514989 C1.613671,42.395278 1.413231,44.375229 1.814351,46.749406 L2.459491,50.567984 L9.658091,49.845815 C13.617321,49.448622 17.531691,49.088935 18.356691,49.046511 Z M19.856691,45.515494 C18.206691,44.788356 16.631691,44.327672 16.356691,44.491752 C16.081691,44.655832 15.196431,44.076653 14.389441,43.204687 C13.084051,41.794172 13.125601,41.697348 14.766191,42.3269 C15.780391,42.716084 17.151841,42.584971 17.813861,42.03554 C18.666091,41.328251 19.851631,41.907173 21.874211,44.018287 C24.963851,47.24318 24.521691,47.57131 19.856691,45.515494 L19.856691,45.515494 Z M20.365821,43.51101 C19.686161,42.692066 18.648431,42.319692 18.059761,42.683513 C17.411941,43.083885 17.752721,43.64391 18.923061,44.102217 C21.682791,45.182934 21.735481,45.161343 20.365821,43.51101 Z M25.915171,38.064626 C24.688601,36.709276 24.321671,35.275642 24.757221,33.540292 C25.530701,30.458482 26.761771,30.312552 28.695571,33.073442 C29.523962,34.256132 30.414536,34.715422 30.768592,34.142542 C31.109988,33.590152 30.931971,32.855542 30.373,32.510082 C28.495331,31.349622 29.225914,28.000002 31.356688,28.000002 C32.475768,28.000002 33.356688,28.666662 33.356688,29.513572 C33.356688,30.346032 33.90792,31.909802 34.581647,32.988612 C36.225041,35.620102 34.245991,37.982946 31.97627,36.099242 C30.7706,35.098622 30.453136,35.278232 30.183888,37.113298 C29.74447,40.108173 28.096861,40.47536 25.915171,38.064626 L25.915171,38.064626 Z M29.356688,37.434259 C29.356688,35.050302 27.377681,31.868992 26.306511,32.531012 C24.978581,33.351722 25.121651,36.36496 26.556691,37.8 C28.209031,39.45234 29.356688,39.302431 29.356688,37.434259 Z M34.356688,34.500002 C34.356688,33.675002 33.933246,33.000002 33.415705,33.000002 C32.154727,33.000002 31.25161,34.561592 32.050541,35.360522 C33.176725,36.486704 34.356688,36.046412 34.356688,34.500002 Z M32.356688,30.500002 C32.356688,29.675002 31.906688,29.000002 31.356688,29.000002 C30.806688,29.000002 30.356688,29.675002 30.356688,30.500002 C30.356688,31.325002 30.806688,32.000002 31.356688,32.000002 C31.906688,32.000002 32.356688,31.325002 32.356688,30.500002 Z M9.820411,35.557412 C14.687241,32.835722 16.539681,31.079782 18.666511,27.172082 C20.146111,24.453572 21.356691,21.964292 21.356691,21.640352 C21.356691,20.468542 15.548091,18.088072 8.961261,16.560482 C5.260491,15.702222 2.035501,15.000002 1.794631,15.000002 C1.553761,15.000002 1.356691,20.400002 1.356691,27.000002 C1.356691,35.400322 1.702831,39 2.510591,39 C3.145231,39 6.434651,37.450835 9.820411,35.557412 Z M7.256711,30.366682 C7.861701,30.073342 8.356691,29.140732 8.356691,28.294222 C8.356691,27.060082 8.068141,26.994582 6.900491,27.963642 C5.260691,29.324562 3.356691,28.563952 3.356691,26.547972 C3.356691,24.308542 6.665361,23.701642 8.109211,25.676232 C9.670921,27.811992 9.376641,30.225312 7.506711,30.617142 C6.764221,30.772732 6.651721,30.660042 7.256711,30.366682 L7.256711,30.366682 Z M7.169211,26.062502 C7.419211,25.312502 7.044211,24.937502 6.294211,25.187502 C5.572331,25.428122 4.784831,26.215622 4.544211,26.937502 C4.294211,27.687502 4.669211,28.062502 5.419211,27.812502 C6.141081,27.571872 6.928581,26.784372 7.169211,26.062502 Z M9.331541,23.952972 C8.475161,22.352822 8.464701,21.492002 9.291541,20.665112 C10.815431,19.141232 13.856661,21.093282 13.856661,23.595292 C13.856661,26.280702 10.710351,26.529392 9.331491,23.952972 L9.331541,23.952972 Z M13.356711,23.468612 C13.356711,21.955532 10.720191,20.303182 9.790041,21.233332 C9.525811,21.497562 9.593371,22.453152 9.940161,23.356872 C10.735771,25.430202 13.356711,25.515922 13.356711,23.468612 L13.356711,23.468612 Z" id="d00"></path>
				</g>
		</g>
</svg>

<!-- Created with Inkscape (http://www.inkscape.org/) -->
<!-- License: Creative Commons -->
<svg width="38" height="39" xmlns="http://www.w3.org/2000/svg"><defs><style>*{fill:#fff}</style></defs><g id="Page-1" stroke="none" stroke-width="1" fill="none" fill-rule="evenodd"><g id="rpg_dice" transform="translate(0 -13)" fill="#000" fill-rule="nonzero"><path d="M1.666 50.75c-.445-.688-.959-9.012-1.142-18.5-.306-15.879-.19-17.304 1.472-17.942.992-.38 8.513-.718 16.712-.75l14.908-.058 1.996 2.657c1.883 2.506 1.954 3.597 1.264 19.25L36.144 52H19.309C6.94 52 2.26 51.668 1.666 50.75zm16.69-1.703c1.334-.07 1.334-.185 0-1.047-1.975-1.277-5.288-1.277-4.5 0 .34.55.19 1-.333 1-.524 0-1.176-.583-1.45-1.295-.65-1.697 2.96-2.006 6.55-.562 2.19.881 2.529 1.399 1.627 2.485-.947 1.142.13 1.372 6.425 1.372 4.16 0 7.782-.353 8.048-.784.266-.43.81-7.907 1.208-16.614.698-15.253.655-15.812-1.175-15.29-1.045.3-4.15.853-6.9 1.231-4.917.677-5.049.787-8 6.704l-3 6.017 8.528 8.618L33.91 49.5l-8.048-7.75C21.436 37.487 17.03 34 16.07 34c-2.047 0-12.022 5.46-13.727 7.515-.73.88-.93 2.86-.53 5.234l.645 3.819 7.2-.722c3.958-.397 7.873-.757 8.698-.8zm1.5-3.532c-1.65-.727-3.224-1.187-3.5-1.023-.274.164-1.16-.415-1.967-1.287-1.305-1.41-1.263-1.508.377-.878 1.014.39 2.386.258 3.048-.291.852-.708 2.038-.129 4.06 1.982 3.09 3.225 2.648 3.553-2.017 1.497zm.51-2.004c-.68-.819-1.718-1.191-2.306-.827-.648.4-.307.96.863 1.418 2.76 1.08 2.812 1.06 1.443-.591zm5.55-5.446c-1.227-1.356-1.594-2.79-1.159-4.525.774-3.082 2.005-3.227 3.939-.467.828 1.183 1.719 1.642 2.073 1.07a1.191 1.191 0 0 0-.396-1.633c-1.878-1.16-1.147-4.51.984-4.51 1.119 0 2 .667 2 1.514 0 .832.55 2.396 1.225 3.475 1.643 2.631-.336 4.994-2.606 3.11-1.205-1-1.523-.82-1.792 1.014-.44 2.995-2.087 3.362-4.269.952zm3.44-.63c0-2.385-1.978-5.566-3.05-4.904-1.327.82-1.184 3.834.25 5.269 1.653 1.652 2.8 1.502 2.8-.366zm5-2.935c0-.825-.423-1.5-.94-1.5-1.261 0-2.164 1.562-1.365 2.36 1.126 1.127 2.306.686 2.306-.86zm-2-4c0-.825-.45-1.5-1-1.5s-1 .675-1 1.5.45 1.5 1 1.5 1-.675 1-1.5zM9.82 35.557c4.867-2.721 6.72-4.477 8.847-8.385 1.48-2.718 2.69-5.208 2.69-5.532 0-1.171-5.809-3.552-12.396-5.08-3.7-.858-6.925-1.56-7.166-1.56-.241 0-.438 5.4-.438 12 0 8.4.346 12 1.154 12 .634 0 3.924-1.55 7.31-3.443zm-2.563-5.19c.605-.294 1.1-1.226 1.1-2.073 0-1.234-.289-1.3-1.457-.33-1.64 1.36-3.543.6-3.543-1.416 0-2.24 3.308-2.846 4.752-.872 1.562 2.136 1.268 4.55-.602 4.941-.743.156-.855.043-.25-.25zm-.088-4.304c.25-.75-.125-1.125-.875-.875-.722.24-1.51 1.028-1.75 1.75-.25.75.125 1.125.875.875.722-.241 1.51-1.029 1.75-1.75zm2.163-2.11c-.857-1.6-.867-2.461-.04-3.288 1.523-1.524 4.565.428 4.565 2.93 0 2.686-3.147 2.934-4.526.358zm4.025-.484c0-1.513-2.637-3.166-3.567-2.236-.264.265-.197 1.22.15 2.124.796 2.073 3.417 2.159 3.417.112z" id="d00"/></g></g></svg>
